X:1
T:Castle Rising, CMD
T:Castle Rising, CMD
T:Frederick Alfred John Hervey, 1867
T:Public Domain Courtesy of the Cyber Hymnal™
C:Frederick Alfred John Hervey, 1867
Z:Public Domain
Z:Courtesy of the Cyber Hymnal™
%%score ( 1 2 ) ( 3 4 )
L:1/8
Q:1/4=110
M:4/4
K:Eb
V:1 treble 
V:2 treble 
V:3 bass 
V:4 bass 
V:1
 [EG]2 | [EA]2 [EG]2 [CF]2 C2 | [B,E]2 (DC) [_B,D]2 [=B,D]2 | [CE]2 [CE]2 [CF]2 [CF]2 | %4
 [DG]6 [DG]2 | G2 [Gc]2 [FB]2 [F=A]2 | B3 z A [EG]2 [EB]2 | [EA]2 [EG]2 [EF]3 [EF] x | [DF]8 | %9
[M:6/4] [EG]2 [E^F]2 [EG]2 [EA]4 [EG]2 | [DF]4 [DG]2 E6 | [Ee]2 [Ae]2 [Ge]2 [^Fd]4 [=Ac]2 | %12
 [GB]12 | [FB]2 [Fc]2 [Fd]2 [Ee]4 [EB]2 | [EB]4 [EA]2 [DG]4 [=EG]2 | [FA]4 [EG]2 F4 [DF]2 | E12 |] %17
V:2
 x2 | x6 C2 | x2 =B,2 x4 | x8 | x8 | G2 x6 | F2 D2 x5 | x9 | x8 |[M:6/4] x12 | x6 E6 | x12 | x12 | %13
 x12 | x12 | x6 (E2 DC) x2 | E12 |] %17
V:3
 [E,B,]2 | [C,A,]2 [E,B,]2 [A,,A,]2 [A,,A,]2 | [B,,G,]2 (F,E,) [B,,F,]2 [G,,G,]2 | %3
 G,2 z [A,,A,]2 [A,C]2 x | [G,=B,]6 [G,B,]2 | [E,C]2 [C,E]2 [F,D]2 [E,C]2 | %6
 [D,B,]2 [B,,B,]2 [E,B,]2 [_D,G,]2 x | [C,A,]2 [G,,B,]2 C3 z C | [B,,B,]8 | %9
[M:6/4] [E,B,]2 [E,=A,]2 [E,B,]2 [E,C]4 [E,B,]2 | [B,,A,]4 [B,,B,]2 [C,G,]6 | %11
 [C,G,]2 [C,C]2 [C,B,]2 [D,=A,]4 [^F,D]2 | [G,D]12 | [A,D]2 [A,C]2 [A,B,]2 [G,B,]4 [G,B,]2 | %14
 [F,C]4 [F,C]2 [G,=B,]4 [C,C]2 | [F,,C]4 [G,,B,]2 [A,,C]2 (B,3 A,) | [E,G,]12 |] %17
V:4
 x2 | x8 | x2 B,,2 x4 | C,3 (G,2 B,,) x2 | x8 | x8 | x9 | x4 A,,2 =A,,2 x | x8 |[M:6/4] x12 | x12 | %11
 x12 | x12 | x12 | x12 | x8 B,,4 | x12 |] %17

